X:558
T:
S:Ur von Baumgartens samling, Visby.
R:vals
O:Gotland, Visby
M:3/4
L:1/8
K:G
Bd|ceBdAc|GBDGB,D|A,DFAcA|cBed d2|ceBdAc|GBDGB,D|
A,DFAcA|G4::BG|F2 F2 cA|G2 G2 dB|A2 ABce|d4 B2|
c2 B2 A2|G2 B2 G2|FGABcA|G4::D2|G3 ABG|B2 A2 G2|
FGABcA|cBed d2|G3 ABA|B2 G2 G2|FGABcA|G4:|

